X:1
T:Take Up Thy Cross
T:Take Up Thy Cross
T:Alfred Henry Ackley
T:Alfred Henry Ackley, 1922
T:Public Domain Courtesy of the Cyber Hymnal™
T:Public Domain Courtesy of the Cyber Hymnal™
C:Alfred Henry Ackley
Z:Public Domain
Z:Courtesy of the Cyber Hymnal™
%%score 1 ( 2 3 )
L:1/8
Q:1/4=107
M:4/4
K:F
V:1 treble 
V:2 bass 
V:3 bass 
V:1
 C2 | C3 C DCB,A, x | C2 =B,2 _B,3 C x | E3 D CB,A,B, x | C6 A,2 | C3 C DCB,A, x | %6
w: 1.~I|walked one day a- long a|coun- try road, And|there a strang- er jour- neyed,|too, Bent|low be- neath the bur- den|
w: 2.~I|cried, “Lord Je- sus,” and He|spoke my name; I|saw His hands all bruised and|torn; I|stooped to kiss a- way the|
w: 3.~“O|let me bear Thy cross, dear|Lord,” I cried, And|lo, a cross for me ap-|peared, The|one for- got- ten I had|
w: 4.~My|cross I’ll car- ry till the|crown ap- pears, The|way I jour- ney soon will|end Where|God Him- self shall wipe a-|
 C2 =B,2 _B,3 B, x | E3 D CB,B,B, x | A,6 ||"^Refrain" _E2 | D3 D DDD_D | C6 [CF]2 x2 | %12
w: of His load: It|was a cross, a cross I|knew.||||
w: marks of shame, The|shame for me that He had|borne.||||
w: cast a- side, The|one, so long, that I had|feared.||||
w: way all tears, And|friend hold fel- low- ship with|friend.||||
 [A,A]3 [B,B] [A,A]C=B,B, | B,6 (B,C) | C3 B, A,B,C_E x | _E2 D2 D2 _D2 | C3 D B,3 C | A,6 |] %18
w: ||||||
w: ||||||
w: ||||||
w: ||||||
V:2
 C,2 | A,3 z A,B,A,G,F, | [C,A,]2 [D,_A,]2 G,3 z G, | C3 z B,A,G,[D,F,][C,G,] | [F,,F,A,]6 C,2 | %5
w: ~|~ ~ ~ ~ ~ ~|* ~ ~ ~|~ ~ ~ ~ ~ ~|~ ~|
 A,3 z A,B,A,G,F, | [C,A,]2 [D,_A,]2 G,3 z G, | C3 z B,A,G,D,E, | [F,,F,]6 || F,2 | %10
w: ~ ~ ~ ~ ~ ~|* ~ ~ ~|* ~ ~ ~ ~ ~|~|~|
 B,3 B, B,B,F,G, | A,6 [F,,F,]2 A,2 | C3 D CA,[D,G,][G,,F,] | G,6 C,2 | %14
w: ~ ~ ~ ~ ~ ~|~ “Take up|* thy cross and fol- low|Me.” I|
 A,3 (z G,)F,G,[F,A,][A,,C] | C2 B,2 F,2 G,2 | A,3 B, G,3 A, | [F,,C,F,]6 |] %18
w: hear * the bless- èd Sav-|* ior call; How|can I make a|less-|
V:3
 x2 | (F,,C,) F,6 x | x4 E,2 x3 | C,2 (G,2 C,2) x3 | x8 | (F,,C,) F,6 x | x4 E,2 C,2 x | %7
 C,2 (G,2 C,2) C,,2 x | x6 || (F,F,,) | B,,8 | F,,C,D,C, x6 | F,4 F,2 x2 | (C,2 D,2 E,2) x2 | %14
 F,2 C,2 x5 | [B,,F,]4 C,4 | C,4 C,4 | x6 |] %18

